Newaita-dark/apps/48/Zoom.svg

<svg height="48pt" viewBox="0 0 48 48" width="48pt" xmlns="http://www.w3.org/2000/svg" xmlns:xlink="http://www.w3.org/1999/xlink"><linearGradient id="a"><stop offset="0" stop-opacity=".313726"/><stop offset=".222222" stop-opacity=".27451"/><stop offset="1" stop-opacity="0"/></linearGradient><radialGradient id="b" cx="450.908936" cy="189.579361" gradientTransform="matrix(.00000026 -.117199 -.210958 -.00000015 67.77701 89.935443)" gradientUnits="userSpaceOnUse" r="21.166656" xlink:href="#a"/><radialGradient id="c" cx="450.908936" cy="189.579361" gradientTransform="matrix(-.00000026 .117199 .210958 .00000015 -29.077997 -16.748774)" gradientUnits="userSpaceOnUse" r="21.166656" xlink:href="#a"/><radialGradient id="d" cx="450.908936" cy="189.579361" gradientTransform="matrix(-.00000026 -.117199 .210958 -.00000015 -29.077997 89.935443)" gradientUnits="userSpaceOnUse" r="21.166656" xlink:href="#a"/><radialGradient id="e" cx="450.908936" cy="189.579361" gradientTransform="matrix(.00000026 .117199 -.210958 .00000015 67.777007 -16.748774)" gradientUnits="userSpaceOnUse" r="21.166656" xlink:href="#a"/><linearGradient id="f" gradientTransform="matrix(.0515316 0 0 .093759 6.192288 14.700625)" gradientUnits="userSpaceOnUse" x1="255.323059" x2="255.323044" y1="233.5" y2="254.666656"><stop offset="0" stop-opacity=".27451"/><stop offset="1" stop-opacity="0"/></linearGradient><linearGradient id="g"><stop offset="0" stop-color="#bdbdbd"/><stop offset="1" stop-color="#e0e0e0"/></linearGradient><linearGradient id="h" gradientUnits="userSpaceOnUse" x1="17.8610895" x2="17.8610895" xlink:href="#g" y1="36.097205" y2="10.2978545001"/><linearGradient id="i" gradientUnits="userSpaceOnUse" x1="39.6913110001" x2="39.6913110001" xlink:href="#g" y1="36.097205" y2="10.29785234364"/><path d="m28.28125 36.59375h3.96875v-1.984375h-3.96875zm0 0" fill="url(#b)"/><path d="m10.417969 36.59375h-3.96875v1.984375h3.96875zm0 0" fill="url(#c)"/><path d="m10.417969 36.59375h-3.96875v-1.984375h3.96875zm0 0" fill="url(#d)"/><path d="m28.28125 36.59375h3.96875v1.984375h-3.96875zm0 0" fill="url(#e)"/><path d="m10.417969 36.097656h17.863281v2.480469h-17.863281zm0 0" fill="url(#f)"/><path d="m5.953125 10.296875c-1.097656 0-1.984375.886719-1.984375 1.984375v17.863281c0 3.296875 2.65625 5.953125 5.953125 5.953125h19.847656c1.097657 0 1.984375-.886718 1.984375-1.984375v-17.863281c0-3.296875-2.65625-5.953125-5.953125-5.953125zm0 0" fill="url(#h)"/><path d="m44.113281 12.273438c-.207031.007812-.410156.054687-.597656.144531l-9.425781 4.464843c-.523438.246094-.859375.773438-.859375 1.351563v9.925781c0 .578125.335937 1.105469.859375 1.351563l9.425781 4.464843c.992187.472657 2.136719-.253906 2.140625-1.351562v-18.855469c-.003906-.84375-.699219-1.519531-1.542969-1.496093zm0 0" fill="url(#i)"/><path d="m5.953125 10.296875c-1.097656 0-1.984375.886719-1.984375 1.984375v.753906c0-1.097656.886719-1.984375 1.984375-1.984375h19.847656c3.296875 0 5.953125 2.65625 5.953125 5.953125v-.753906c0-3.296875-2.65625-5.953125-5.953125-5.953125zm0 0" fill="#efefef"/><path d="m44.191406 12.273438c-.027344 0-.050781 0-.078125 0-.207031.007812-.410156.054687-.597656.144531l-9.425781 4.464843c-.523438.246094-.859375.773438-.859375 1.351563v.753906c0-.578125.335937-1.105469.859375-1.351562l9.425781-4.464844c.1875-.089844.390625-.140625.597656-.144531h.078125c.808594.015625 1.460938.679687 1.464844 1.496094v-.753907c-.003906-.816406-.65625-1.476562-1.464844-1.496093zm0 0" fill="#efefef"/><path d="m3.96875 29.429688v.714843c0 3.296875 2.65625 5.953125 5.953125 5.953125h19.847656c1.097657 0 1.984375-.886718 1.984375-1.984375v-.714843c0 1.101562-.886718 1.988281-1.984375 1.988281h-19.847656c-3.296875 0-5.953125-2.65625-5.953125-5.957031zm0 0" fill-opacity=".235294"/><path d="m33.230469 27.40625v.753906c0 .578125.335937 1.105469.859375 1.351563l9.425781 4.464843c.992187.472657 2.136719-.253906 2.140625-1.351562v-.753906c-.003906 1.101562-1.148438 1.824218-2.140625 1.355468l-9.425781-4.46875c-.523438-.246093-.859375-.773437-.859375-1.351562zm0 0" fill-opacity=".235294"/><path d="m5.953125 10.15625c-1.175781 0-2.125.953125-2.125 2.125v17.863281c0 3.371094 2.722656 6.09375 6.09375 6.09375h19.847656c1.175781 0 2.125-.949219 2.125-2.125v-17.863281c0-3.371094-2.722656-6.09375-6.09375-6.09375zm0 .28125h19.847656c3.222657 0 5.8125 2.589844 5.8125 5.8125v17.863281c0 1.023438-.820312 1.84375-1.84375 1.84375h-19.847656c-3.222656 0-5.8125-2.589843-5.8125-5.8125v-17.863281c0-1.023438.820313-1.84375 1.84375-1.84375zm38.242187 1.695312c-.03125 0-.058593 0-.085937 0-.226563.007813-.449219.058594-.652344.15625l-9.429687 4.464844c-.570313.273438-.9375.847656-.9375 1.480469v9.925781c0 .632813.367187 1.207032.9375 1.480469l9.429687 4.464844c1.082031.511719 2.335938-.285157 2.339844-1.480469v-18.855469c-.003906-.890625-.71875-1.617187-1.601563-1.636719zm-.007812.28125c.734375.015626 1.324219.613282 1.328125 1.355469v18.855469c-.003906 1-1.035156 1.65625-1.941406 1.226562l-9.425781-4.464843c-.472657-.226563-.777344-.703125-.777344-1.226563v-9.925781c0-.523437.304687-1 .777344-1.226563l9.425781-4.464843c.171875-.078125.355469-.125.542969-.128907zm0 0" fill="#212121"/></svg>

<?xml version="1.0" encoding="UTF-8"?>
<svg xmlns="http://www.w3.org/2000/svg" xmlns:xlink="http://www.w3.org/1999/xlink" width="48pt" height="48pt" viewBox="0 0 48 48" version="1.1">
<defs>
<radialGradient id="radial0" gradientUnits="userSpaceOnUse" cx="450.908936" cy="189.579361" fx="450.908936" fy="189.579361" r="21.166656" gradientTransform="matrix(0.000000261256,-0.117199,-0.210958,-0.000000152308,67.77701,89.935443)">
<stop offset="0" style="stop-color:rgb(0%,0%,0%);stop-opacity:0.313726;"/>
<stop offset="0.222222" style="stop-color:rgb(0%,0%,0%);stop-opacity:0.27451;"/>
<stop offset="1" style="stop-color:rgb(0%,0%,0%);stop-opacity:0;"/>
</radialGradient>
<radialGradient id="radial1" gradientUnits="userSpaceOnUse" cx="450.908936" cy="189.579361" fx="450.908936" fy="189.579361" r="21.166656" gradientTransform="matrix(-0.000000261256,0.117199,0.210958,0.000000152308,-29.077997,-16.748774)">
<stop offset="0" style="stop-color:rgb(0%,0%,0%);stop-opacity:0.313726;"/>
<stop offset="0.222222" style="stop-color:rgb(0%,0%,0%);stop-opacity:0.27451;"/>
<stop offset="1" style="stop-color:rgb(0%,0%,0%);stop-opacity:0;"/>
</radialGradient>
<radialGradient id="radial2" gradientUnits="userSpaceOnUse" cx="450.908936" cy="189.579361" fx="450.908936" fy="189.579361" r="21.166656" gradientTransform="matrix(-0.000000261256,-0.117199,0.210958,-0.000000152308,-29.077997,89.935443)">
<stop offset="0" style="stop-color:rgb(0%,0%,0%);stop-opacity:0.313726;"/>
<stop offset="0.222222" style="stop-color:rgb(0%,0%,0%);stop-opacity:0.27451;"/>
<stop offset="1" style="stop-color:rgb(0%,0%,0%);stop-opacity:0;"/>
</radialGradient>
<radialGradient id="radial3" gradientUnits="userSpaceOnUse" cx="450.908936" cy="189.579361" fx="450.908936" fy="189.579361" r="21.166656" gradientTransform="matrix(0.000000261256,0.117199,-0.210958,0.000000152308,67.777007,-16.748774)">
<stop offset="0" style="stop-color:rgb(0%,0%,0%);stop-opacity:0.313726;"/>
<stop offset="0.222222" style="stop-color:rgb(0%,0%,0%);stop-opacity:0.27451;"/>
<stop offset="1" style="stop-color:rgb(0%,0%,0%);stop-opacity:0;"/>
</radialGradient>
<linearGradient id="linear0" gradientUnits="userSpaceOnUse" x1="255.323059" y1="233.5" x2="255.323044" y2="254.666656" gradientTransform="matrix(0.0515316,0,0,0.093759,6.192288,14.700625)">
<stop offset="0" style="stop-color:rgb(0%,0%,0%);stop-opacity:0.27451;"/>
<stop offset="1" style="stop-color:rgb(0%,0%,0%);stop-opacity:0;"/>
</linearGradient>
<linearGradient id="linear1" gradientUnits="userSpaceOnUse" x1="190.5" y1="170" x2="190.5" y2="-105.166656" gradientTransform="matrix(0.093759,0,0,0.093759,0,20.158175)">
<stop offset="0" style="stop-color:rgb(74.117649%,74.117649%,74.117649%);stop-opacity:1;"/>
<stop offset="1" style="stop-color:rgb(87.843138%,87.843138%,87.843138%);stop-opacity:1;"/>
</linearGradient>
<linearGradient id="linear2" gradientUnits="userSpaceOnUse" x1="423.333344" y1="170" x2="423.333344" y2="-105.166679" gradientTransform="matrix(0.093759,0,0,0.093759,0,20.158175)">
<stop offset="0" style="stop-color:rgb(74.117649%,74.117649%,74.117649%);stop-opacity:1;"/>
<stop offset="1" style="stop-color:rgb(87.843138%,87.843138%,87.843138%);stop-opacity:1;"/>
</linearGradient>
</defs>
<g id="surface1">
<path style=" stroke:none;fill-rule:nonzero;fill:url(#radial0);" d="M 28.28125 36.59375 L 32.25 36.59375 L 32.25 34.609375 L 28.28125 34.609375 Z M 28.28125 36.59375 "/>
<path style=" stroke:none;fill-rule:nonzero;fill:url(#radial1);" d="M 10.417969 36.59375 L 6.449219 36.59375 L 6.449219 38.578125 L 10.417969 38.578125 Z M 10.417969 36.59375 "/>
<path style=" stroke:none;fill-rule:nonzero;fill:url(#radial2);" d="M 10.417969 36.59375 L 6.449219 36.59375 L 6.449219 34.609375 L 10.417969 34.609375 Z M 10.417969 36.59375 "/>
<path style=" stroke:none;fill-rule:nonzero;fill:url(#radial3);" d="M 28.28125 36.59375 L 32.25 36.59375 L 32.25 38.578125 L 28.28125 38.578125 Z M 28.28125 36.59375 "/>
<path style=" stroke:none;fill-rule:nonzero;fill:url(#linear0);" d="M 10.417969 36.097656 L 28.28125 36.097656 L 28.28125 38.578125 L 10.417969 38.578125 Z M 10.417969 36.097656 "/>
<path style=" stroke:none;fill-rule:nonzero;fill:url(#linear1);" d="M 5.953125 10.296875 C 4.855469 10.296875 3.96875 11.183594 3.96875 12.28125 L 3.96875 30.144531 C 3.96875 33.441406 6.625 36.097656 9.921875 36.097656 L 29.769531 36.097656 C 30.867188 36.097656 31.753906 35.210938 31.753906 34.113281 L 31.753906 16.25 C 31.753906 12.953125 29.097656 10.296875 25.800781 10.296875 Z M 5.953125 10.296875 "/>
<path style=" stroke:none;fill-rule:nonzero;fill:url(#linear2);" d="M 44.113281 12.273438 C 43.90625 12.28125 43.703125 12.328125 43.515625 12.417969 L 34.089844 16.882812 C 33.566406 17.128906 33.230469 17.65625 33.230469 18.234375 L 33.230469 28.160156 C 33.230469 28.738281 33.566406 29.265625 34.089844 29.511719 L 43.515625 33.976562 C 44.507812 34.449219 45.652344 33.722656 45.65625 32.625 L 45.65625 13.769531 C 45.652344 12.925781 44.957031 12.25 44.113281 12.273438 Z M 44.113281 12.273438 "/>
<path style=" stroke:none;fill-rule:nonzero;fill:rgb(93.725491%,93.725491%,93.725491%);fill-opacity:1;" d="M 5.953125 10.296875 C 4.855469 10.296875 3.96875 11.183594 3.96875 12.28125 L 3.96875 13.035156 C 3.96875 11.9375 4.855469 11.050781 5.953125 11.050781 L 25.800781 11.050781 C 29.097656 11.050781 31.753906 13.707031 31.753906 17.003906 L 31.753906 16.25 C 31.753906 12.953125 29.097656 10.296875 25.800781 10.296875 Z M 5.953125 10.296875 "/>
<path style=" stroke:none;fill-rule:nonzero;fill:rgb(93.725491%,93.725491%,93.725491%);fill-opacity:1;" d="M 44.191406 12.273438 C 44.164062 12.273438 44.140625 12.273438 44.113281 12.273438 C 43.90625 12.28125 43.703125 12.328125 43.515625 12.417969 L 34.089844 16.882812 C 33.566406 17.128906 33.230469 17.65625 33.230469 18.234375 L 33.230469 18.988281 C 33.230469 18.410156 33.566406 17.882812 34.089844 17.636719 L 43.515625 13.171875 C 43.703125 13.082031 43.90625 13.03125 44.113281 13.027344 C 44.140625 13.027344 44.164062 13.027344 44.191406 13.027344 C 45 13.042969 45.652344 13.707031 45.65625 14.523438 L 45.65625 13.769531 C 45.652344 12.953125 45 12.292969 44.191406 12.273438 Z M 44.191406 12.273438 "/>
<path style=" stroke:none;fill-rule:nonzero;fill:rgb(0%,0%,0%);fill-opacity:0.235294;" d="M 3.96875 29.429688 L 3.96875 30.144531 C 3.96875 33.441406 6.625 36.097656 9.921875 36.097656 L 29.769531 36.097656 C 30.867188 36.097656 31.753906 35.210938 31.753906 34.113281 L 31.753906 33.398438 C 31.753906 34.5 30.867188 35.386719 29.769531 35.386719 L 9.921875 35.386719 C 6.625 35.386719 3.96875 32.730469 3.96875 29.429688 Z M 3.96875 29.429688 "/>
<path style=" stroke:none;fill-rule:nonzero;fill:rgb(0%,0%,0%);fill-opacity:0.235294;" d="M 33.230469 27.40625 L 33.230469 28.160156 C 33.230469 28.738281 33.566406 29.265625 34.089844 29.511719 L 43.515625 33.976562 C 44.507812 34.449219 45.652344 33.722656 45.65625 32.625 L 45.65625 31.871094 C 45.652344 32.972656 44.507812 33.695312 43.515625 33.226562 L 34.089844 28.757812 C 33.566406 28.511719 33.230469 27.984375 33.230469 27.40625 Z M 33.230469 27.40625 "/>
<path style=" stroke:none;fill-rule:nonzero;fill:rgb(12.941177%,12.941177%,12.941177%);fill-opacity:1;" d="M 5.953125 10.15625 C 4.777344 10.15625 3.828125 11.109375 3.828125 12.28125 L 3.828125 30.144531 C 3.828125 33.515625 6.550781 36.238281 9.921875 36.238281 L 29.769531 36.238281 C 30.945312 36.238281 31.894531 35.289062 31.894531 34.113281 L 31.894531 16.25 C 31.894531 12.878906 29.171875 10.15625 25.800781 10.15625 Z M 5.953125 10.4375 L 25.800781 10.4375 C 29.023438 10.4375 31.613281 13.027344 31.613281 16.25 L 31.613281 34.113281 C 31.613281 35.136719 30.792969 35.957031 29.769531 35.957031 L 9.921875 35.957031 C 6.699219 35.957031 4.109375 33.367188 4.109375 30.144531 L 4.109375 12.28125 C 4.109375 11.257812 4.929688 10.4375 5.953125 10.4375 Z M 44.195312 12.132812 C 44.164062 12.132812 44.136719 12.132812 44.109375 12.132812 C 43.882812 12.140625 43.660156 12.191406 43.457031 12.289062 L 34.027344 16.753906 C 33.457031 17.027344 33.089844 17.601562 33.089844 18.234375 L 33.089844 28.160156 C 33.089844 28.792969 33.457031 29.367188 34.027344 29.640625 L 43.457031 34.105469 C 44.539062 34.617188 45.792969 33.820312 45.796875 32.625 L 45.796875 13.769531 C 45.792969 12.878906 45.078125 12.152344 44.195312 12.132812 Z M 44.1875 12.414062 C 44.921875 12.429688 45.511719 13.027344 45.515625 13.769531 L 45.515625 32.625 C 45.511719 33.625 44.480469 34.28125 43.574219 33.851562 L 34.148438 29.386719 C 33.675781 29.160156 33.371094 28.683594 33.371094 28.160156 L 33.371094 18.234375 C 33.371094 17.710938 33.675781 17.234375 34.148438 17.007812 L 43.574219 12.542969 C 43.746094 12.464844 43.929688 12.417969 44.117188 12.414062 C 44.140625 12.414062 44.164062 12.414062 44.1875 12.414062 Z M 44.1875 12.414062 "/>
</g>
</svg>
